X:453
M:C|
L:1/8
K:D
|:d>fA>f d>fA>f|~=c>de>f g2 f>e|1 d>fA>f d>fA>f|d>ef>g a2f>e:|2
a>fg>e f>de>c|d>BA>G F2 E>D||

